build/communication/XOutline.svg

<svg xmlns="http://www.w3.org/2000/svg" fill="none" viewBox="0 0 24 24" focusable="false"><path d="M0 0H24V24H0z"/><path fill="#74767B" d="M13.4908 10.7749L19.3212 4L17.9396 4L12.8771 9.88256L8.83365 4L4.17004 4L10.2845 12.8955L4.17004 20L5.55173 20L10.8979 13.7878L15.168 20L19.8316 20L13.4908 10.7749ZM11.5984 12.9738L10.9789 12.0881L6.04958 5.03974L8.17177 5.03974L12.1498 10.728L12.7693 11.6137L17.9402 19.0075L15.818 19.0075L11.5984 12.9738Z"/></svg>

<svg xmlns="http://www.w3.org/2000/svg" fill="none" viewBox="0 0 24 24" focusable="false"><path fill="none" d="M0 0h24v24H0z"/><path fill="#74767B" d="M13.49 10.77 19.32 4h-1.39l-5.06 5.88L8.83 4H4.17l6.11 8.89L4.17 20h1.38l5.34-6.22L15.16 20h4.67zm-1.9 2.2-.62-.89-4.93-7.05h2.13l3.97 5.69.62.89L17.94 19h-2.13z"/></svg>
